public/assets/img/tech-logo/aws.svg

<svg width="100" height="100" viewBox="0 0 100 100" fill="none" xmlns="http://www.w3.org/2000/svg">
<g id="aws">
<g id="aws_2">
<path id="Vector" d="M28.1812 41.7181C28.1812 42.9487 28.3143 43.9465 28.5471 44.6782C28.8132 45.4099 29.1458 46.2081 29.6114 47.0728C29.7777 47.3389 29.8442 47.605 29.8442 47.8378C29.8442 48.1704 29.6446 48.503 29.2123 48.8355L27.117 50.2324C26.8176 50.432 26.5183 50.5317 26.2522 50.5317C25.9196 50.5317 25.587 50.3655 25.2545 50.0661C24.7888 49.5672 24.3897 49.0351 24.0571 48.503C23.7245 47.9375 23.392 47.3056 23.0261 46.5407C20.4319 49.6005 17.1725 51.1304 13.248 51.1304C10.4542 51.1304 8.22586 50.3322 6.59617 48.7358C4.96648 47.1393 4.13501 45.0108 4.13501 42.35C4.13501 39.523 5.13278 37.2282 7.16158 35.4987C9.19037 33.7692 11.8844 32.9045 15.31 32.9045C16.4408 32.9045 17.6049 33.0043 18.8355 33.1706C20.0661 33.3369 21.3299 33.6029 22.6603 33.9023V31.4743C22.6603 28.9467 22.1281 27.1839 21.0971 26.1529C20.0328 25.1219 18.2368 24.623 15.6759 24.623C14.5118 24.623 13.3145 24.756 12.0839 25.0554C10.8533 25.3547 9.656 25.7205 8.49194 26.1862C7.95979 26.419 7.56068 26.552 7.32787 26.6185C7.09506 26.6851 6.92876 26.7183 6.79573 26.7183C6.3301 26.7183 6.09729 26.3857 6.09729 25.6873V24.0576C6.09729 23.5255 6.16381 23.1263 6.3301 22.8935C6.4964 22.6607 6.79573 22.4279 7.26135 22.1951C8.42542 21.5964 9.82229 21.0975 11.452 20.6984C13.0817 20.2661 14.8111 20.0665 16.6404 20.0665C20.5982 20.0665 23.4917 20.9645 25.3542 22.7605C27.1835 24.5565 28.1147 27.2837 28.1147 30.9422V41.7181H28.1812ZM14.6781 46.7735C15.7757 46.7735 16.9065 46.5739 18.1038 46.1748C19.3011 45.7757 20.3654 45.044 21.2634 44.0462C21.7955 43.4143 22.1946 42.7159 22.3942 41.9177C22.5937 41.1195 22.7268 40.1549 22.7268 39.0241V37.6273C21.7623 37.3944 20.7312 37.1949 19.667 37.0619C18.6027 36.9288 17.5716 36.8623 16.5406 36.8623C14.3123 36.8623 12.6826 37.2947 11.585 38.1927C10.4875 39.0907 9.95533 40.3545 9.95533 42.0174C9.95533 43.5806 10.3544 44.7447 11.1859 45.5429C11.9841 46.3744 13.1482 46.7735 14.6781 46.7735ZM41.3851 50.3655C40.7864 50.3655 40.3873 50.2657 40.1212 50.0329C39.8551 49.8333 39.6223 49.3677 39.4228 48.7358L31.6069 23.0266C31.4074 22.3614 31.3076 21.929 31.3076 21.6962C31.3076 21.1641 31.5737 20.8647 32.1058 20.8647H35.3652C35.9971 20.8647 36.4295 20.9645 36.6623 21.1973C36.9284 21.3969 37.1279 21.8625 37.3275 22.4944L42.915 44.5119L48.1034 22.4944C48.2697 21.8292 48.4692 21.3969 48.7353 21.1973C49.0014 20.9978 49.467 20.8647 50.0657 20.8647H52.7264C53.3583 20.8647 53.7907 20.9645 54.0567 21.1973C54.3228 21.3969 54.5556 21.8625 54.6887 22.4944L59.9436 44.7779L65.6974 22.4944C65.8969 21.8292 66.1297 21.3969 66.3625 21.1973C66.6286 20.9978 67.061 20.8647 67.6597 20.8647H70.7527C71.2849 20.8647 71.5842 21.1308 71.5842 21.6962C71.5842 21.8625 71.5509 22.0288 71.5177 22.2284C71.4844 22.4279 71.4179 22.694 71.2849 23.0598L63.2695 48.769C63.0699 49.4342 62.8371 49.8666 62.571 50.0661C62.305 50.2657 61.8726 50.3987 61.3072 50.3987H58.4469C57.815 50.3987 57.3826 50.2989 57.1166 50.0661C56.8505 49.8333 56.6177 49.4009 56.4846 48.7358L51.3295 27.2837L46.2076 48.7025C46.0413 49.3677 45.8418 49.8001 45.5757 50.0329C45.3096 50.2657 44.844 50.3655 44.2453 50.3655H41.3851ZM84.1228 51.2634C82.3934 51.2634 80.6639 51.0639 79.001 50.6648C77.338 50.2657 76.0409 49.8333 75.1762 49.3344C74.644 49.0351 74.2782 48.7025 74.1451 48.4032C74.0121 48.1038 73.9456 47.7712 73.9456 47.4719V45.7757C73.9456 45.0773 74.2117 44.7447 74.7106 44.7447C74.9101 44.7447 75.1097 44.7779 75.3092 44.8445C75.5088 44.911 75.8081 45.044 76.1407 45.1771C77.2715 45.6759 78.5021 46.075 79.7992 46.3411C81.1295 46.6072 82.4266 46.7402 83.757 46.7402C85.8523 46.7402 87.482 46.3744 88.6128 45.6427C89.7436 44.911 90.3423 43.8467 90.3423 42.4831C90.3423 41.5518 90.0429 40.7869 89.4443 40.1549C88.8456 39.523 87.7148 38.9576 86.0851 38.4255L81.2626 36.9288C78.8347 36.1639 77.0387 35.0331 75.9411 33.5364C74.8436 32.073 74.2782 30.4433 74.2782 28.7139C74.2782 27.317 74.5775 26.0864 75.1762 25.0221C75.7748 23.9578 76.5731 23.0266 77.5708 22.2949C78.5686 21.5299 79.6994 20.9645 81.0298 20.5654C82.3601 20.1663 83.757 20 85.2204 20C85.9521 20 86.717 20.0333 87.4487 20.133C88.2137 20.2328 88.9121 20.3658 89.6106 20.4989C90.2758 20.6652 90.9077 20.8315 91.5063 21.031C92.105 21.2306 92.5706 21.4301 92.9032 21.6297C93.3688 21.8958 93.7014 22.1618 93.901 22.4612C94.1005 22.7272 94.2003 23.0931 94.2003 23.5587V25.1219C94.2003 25.8203 93.9342 26.1862 93.4354 26.1862C93.1693 26.1862 92.7369 26.0531 92.1715 25.7871C90.2757 24.9223 88.1472 24.49 85.7858 24.49C83.89 24.49 82.3934 24.7893 81.3624 25.4212C80.3313 26.0531 79.7992 27.0176 79.7992 28.3813C79.7992 29.3125 80.1318 30.1107 80.7969 30.7427C81.4621 31.3746 82.6927 32.0065 84.4554 32.5719L89.1782 34.0686C91.5728 34.8335 93.3023 35.8978 94.3333 37.2614C95.3644 38.625 95.8633 40.1882 95.8633 41.9177C95.8633 43.3478 95.5639 44.6449 94.9985 45.7757C94.3999 46.9065 93.6016 47.9043 92.5706 48.7025C91.5396 49.534 90.309 50.1326 88.8789 50.565C87.3822 51.0306 85.8191 51.2634 84.1228 51.2634Z" fill="#252F3E"/>
<path id="Vector_2" fill-rule="evenodd" clip-rule="evenodd" d="M90.4087 67.4272C79.4665 75.5091 63.5687 79.7996 49.8993 79.7996C30.7422 79.7996 13.4808 72.7154 0.443259 60.9417C-0.587768 60.0104 0.343482 58.7466 1.57406 59.4783C15.6759 67.66 33.0703 72.6156 51.0634 72.6156C63.2029 72.6156 76.5397 70.0879 88.8123 64.8995C90.6415 64.068 92.2047 66.0968 90.4087 67.4272Z" fill="#FF9900"/>
<path id="Vector_3" fill-rule="evenodd" clip-rule="evenodd" d="M94.9652 62.2388C93.5684 60.4428 85.7193 61.3741 82.1606 61.8064C81.0963 61.9395 80.93 61.0082 81.8945 60.3098C88.1472 55.9196 98.4241 57.1834 99.6214 58.6468C100.819 60.1435 99.2889 70.4205 93.4353 75.3428C92.5373 76.1078 91.6726 75.7087 92.0717 74.7109C93.4021 71.4183 96.3621 64.0015 94.9652 62.2388Z" fill="#FF9900"/>
</g>
</g>
</svg>

<svg xmlns="http://www.w3.org/2000/svg" width="100" height="100" fill="none"><path fill="#252F3E" d="M28.181 41.718c0 1.23.133 2.228.366 2.96.266.732.599 1.53 1.064 2.395.167.266.233.532.233.765 0 .332-.2.665-.632.998l-2.095 1.396c-.3.2-.599.3-.865.3-.332 0-.665-.166-.997-.466a10.3 10.3 0 0 1-1.198-1.563 26 26 0 0 1-1.03-1.962q-3.893 4.59-9.779 4.59c-2.794 0-5.022-.799-6.652-2.395S4.135 45.01 4.135 42.35c0-2.827.998-5.122 3.027-6.851s4.722-2.595 8.148-2.595c1.13 0 2.295.1 3.525.267 1.231.166 2.495.432 3.825.731v-2.428c0-2.527-.532-4.29-1.563-5.321-1.064-1.031-2.86-1.53-5.421-1.53-1.164 0-2.361.133-3.592.432-1.23.3-2.428.666-3.592 1.131a10 10 0 0 1-1.164.433c-.233.066-.4.1-.532.1-.466 0-.699-.333-.699-1.032v-1.63c0-.531.067-.93.233-1.163s.466-.466.931-.699q1.746-.898 4.191-1.497c1.63-.432 3.36-.631 5.188-.631 3.958 0 6.852.898 8.714 2.694 1.83 1.796 2.76 4.523 2.76 8.181v10.776zm-13.503 5.055c1.098 0 2.229-.2 3.426-.598 1.197-.4 2.261-1.131 3.16-2.129.532-.632.93-1.33 1.13-2.128s.333-1.763.333-2.894v-1.397a28 28 0 0 0-3.06-.565 25 25 0 0 0-3.126-.2c-2.229 0-3.858.433-4.956 1.33-1.098.899-1.63 2.163-1.63 3.825 0 1.564.4 2.728 1.23 3.526.8.831 1.963 1.23 3.493 1.23m26.707 3.592c-.599 0-.998-.1-1.264-.332-.266-.2-.499-.665-.698-1.297l-7.816-25.71c-.2-.665-.3-1.097-.3-1.33 0-.532.267-.831.799-.831h3.26c.631 0 1.063.1 1.296.332.266.2.466.666.666 1.297l5.587 22.018 5.188-22.018c.167-.665.366-1.097.632-1.297s.732-.332 1.33-.332h2.661c.632 0 1.065.1 1.33.332.267.2.5.666.633 1.297l5.255 22.284 5.753-22.284c.2-.665.433-1.097.665-1.297.267-.2.699-.332 1.298-.332h3.093c.532 0 .831.266.831.831 0 .166-.033.333-.066.532-.034.2-.1.466-.233.832L63.27 48.769q-.3.998-.699 1.297c-.266.2-.698.333-1.264.333h-2.86c-.632 0-1.064-.1-1.33-.333-.267-.233-.5-.665-.632-1.33L51.33 27.284l-5.122 21.419c-.167.665-.366 1.097-.632 1.33s-.732.332-1.33.332zm42.738.898c-1.73 0-3.46-.2-5.122-.598-1.663-.4-2.96-.832-3.825-1.33-.532-.3-.898-.633-1.03-.932-.134-.3-.2-.632-.2-.931v-1.696c0-.699.266-1.031.765-1.031q.3 0 .598.1c.2.066.5.199.832.332a18 18 0 0 0 3.658 1.164c1.33.266 2.628.4 3.958.4 2.095 0 3.725-.367 4.856-1.098s1.73-1.796 1.73-3.16c0-.931-.3-1.696-.899-2.328-.598-.632-1.73-1.197-3.359-1.73l-4.822-1.496c-2.428-.765-4.224-1.896-5.322-3.393-1.097-1.463-1.663-3.093-1.663-4.822q0-2.096.898-3.692a8.55 8.55 0 0 1 2.395-2.727c.998-.765 2.128-1.33 3.459-1.73S83.757 20 85.22 20c.732 0 1.497.033 2.229.133.765.1 1.463.233 2.162.366.665.166 1.297.332 1.895.532q.899.3 1.397.599c.466.266.798.532.998.831q.3.399.3 1.098v1.563c0 .698-.267 1.064-.766 1.064-.266 0-.698-.133-1.264-.399q-2.843-1.297-6.385-1.297c-1.896 0-3.393.3-4.424.931-1.03.632-1.563 1.597-1.563 2.96 0 .931.333 1.73.998 2.362s1.896 1.264 3.658 1.829l4.723 1.497c2.395.764 4.124 1.829 5.155 3.192s1.53 2.927 1.53 4.657c0 1.43-.3 2.727-.864 3.858-.6 1.13-1.397 2.128-2.428 2.926-1.031.832-2.262 1.43-3.692 1.863-1.497.466-3.06.698-4.756.698"/><path fill="#F90" fill-rule="evenodd" d="M90.409 67.427C79.466 75.51 63.569 79.8 49.899 79.8c-19.157 0-36.418-7.085-49.456-18.858-1.03-.932-.1-2.195 1.131-1.464 14.102 8.182 31.496 13.138 49.49 13.138 12.139 0 25.476-2.528 37.748-7.716 1.83-.832 3.393 1.197 1.597 2.527" clip-rule="evenodd"/><path fill="#F90" fill-rule="evenodd" d="M94.965 62.239c-1.397-1.796-9.246-.865-12.804-.433-1.065.134-1.231-.798-.267-1.496 6.253-4.39 16.53-3.127 17.727-1.663 1.198 1.497-.332 11.774-6.186 16.696-.898.765-1.762.366-1.363-.632 1.33-3.293 4.29-10.71 2.893-12.472" clip-rule="evenodd"/></svg>
